!!!!SEGMENT: pl-wumfc--r244--003_paderewski-ignacy-jan--6-melodies-op-18--vocal-piece.krn
!!!cenid: 18xx:3133
!!!COM: Paderewski, Ignacy Jan
!!!COM-rismid: pe30029943
!!!CDT: 1860/11/18-1941/06/29
!!!CNT: Polish
!!!GTL: 6 Mélodies op. 18
!!!OTL: [Vocal piece]
!!!PDT:
!!!AGN:
!!!SMS-siglum: PL-Wumfc
!!!SMS-shelfmark: R244
!!!SMS-shelfwork: 003 G
!!!SMS-variant:
!!!SMS-altvar:
!!!NIFC-rismid: 1001155726
!!!URL-scan: http://repozytorium.nifc.pl/skany/pl-wumfc--r244
!!!ONB-nifc: Nr III, Moja Pieszczotka
**kern	**kern	**dynam	**kern	**text	**dynam
*part2	*part2	*part2	*part1	*part1	*part1
*staff3	*staff2	*	*staff1	*staff1	*
*I"[Piano]	*I"[Piano]	*	*I"[Vioce]	*	*
*I'pf	*I'pf	*	*I'V	*	*
*clefF4	*clefG2	*	*clefG2	*	*
*k[b-e-]	*k[b-e-]	*	*k[b-e-]	*	*
*B-:	*B-:	*	*B-:	*	*
*M3/8	*M3/8	*	*M3/8	*	*
=1	=1	=1	=1	=1	=1
8BBB-/	4r	.	4.r	.	.
8r	.	.	.	.	.
!LO:TX:t=P:cross-measure beam:problem	!LO:TX:t=P:cross-measure beam:problem	!	!	!	!
(>16F\LL	(>16f/LL	<	.	.	.
16B-\J	16b-/J	.	.	.	.
=2	=2	=2	=2	=2	=2
8f\J)	8ff/J)	.	4.r	.	.
8r	8r	[	.	.	.
!LO:TX:t=P:cross-measure beam:problem	!LO:TX:t=P:cross-measure beam:problem	!	!	!	!
(<[>8FF/L	(>8gL 8e- 8c/	.	.	.	.
=3	=3	=3	=3	=3	=3
8FF]J 8BBB-/)	8b-J 8f 8d/)	.	4.r	.	.
8r	8r	.	.	.	.
!LO:TX:t=P:cross-measure beam:problem	!LO:TX:t=P:cross-measure beam:problem	!	!	!	!
(>16F\LL	(>16f/LL	<	.	.	.
16B-\J	16b-/J	.	.	.	.
=4	=4	=4	=4	=4	=4
8f\J)	8ff/J)	.	4.r	.	.
8r	8r	[	.	.	.
!LO:TX:t=P:cross-measure beam:problem	!LO:TX:t=P:cross-measure beam:problem	!	!	!	!
(<[>8FF/L	(>8gL 8e- 8c/	.	.	.	.
=5	=5	=5	=5	=5	=5
!LO:TX:a:t=Ped.	!	!	!	!	!
8FF]J 8BBB-/)	8b-J 8f 8d/)	.	4.r	.	.
8r	8r	.	.	.	.
!LO:TX:t=P:cross-measure beam:problem	!LO:TX:t=P:cross-measure beam:problem	!	!	!	!
(>16F\LL	(>16f/LL	<	.	.	.
16B-\J	16b-/J	.	.	.	.
=6	=6	=6	=6	=6	=6
8f\J)	8ff/J)	.	4.r	.	.
8r	8r	[	.	.	.
!LO:TX:t=P:cross-measure beam:problem	!LO:TX:t=P:cross-measure beam:problem	!	!	!	!
(>16F\LL	(>16f/LL	.	.	.	.
16B-\J	16b-/J	.	.	.	.
=7	=7	=7	=7	=7	=7
8f\J)	8ff/J)	.	4.r	.	.
8r	8r	.	.	.	.
!LO:TX:t=P:cross-measure beam:problem	!LO:TX:t=P:cross-measure beam:problem	!	!	!	!
(>16F\LL	(>16ff\LL	.	.	.	.
16B-\JJ	16bb-\JJ	.	.	.	.
!!LO:LB:g=original
=8	=8	=8	=8	=8	=8
8f\)	8fff\)	.	4.r;>	.	.
8r	8r	.	.	.	.
*	*Xped	*	*	*	*
8r	8r;>	.	.	.	.
=9	=9	=9	=9	=9	=9
*	*	*	*	*color:grey	*
8F 8BB-\	8dd 8f 8d/	.	4dd\	Mo-	.
!	!	!	!	!	!LO:HP:a
8r	8r	.	.	.	>
!LO:TX:t=P:cross-measure beam:problem	!LO:TX:t=P:cross-measure beam:problem	!	!	!	!
(>8e-L 8A\	(>8cccL 8gg 8cc\	.	8cc\	.	.
=10	=10	=10	=10	=10	=10
!	!	!	!	!	!LO:DY:a:t=p.
8gJ 8e- 8A\)	8eee-J 8gg 8ee-\)	.	4ee-\	-ja	]p
8r	8r	.	.	.	.
!LO:TX:t=P:cross-measure beam:problem	!LO:TX:t=P:cross-measure beam:problem	!	!	!	!
(>8F\L	(>8ddL 8f 8d/	.	8dd\	pie-	.
=11	=11	=11	=11	=11	=11
8FF\J)	8ccJ 8e- 8c/)	.	4cc\	-szczot-	.
8r	8r	.	.	.	.
!LO:TX:t=P:cross-measure beam:problem	!LO:TX:t=P:cross-measure beam:problem	!	!	!	!
(>8enL 8d-X\	(>8bb-L 8dd-X 8b-\	.	8b-/	-ka	.
=12	=12	=12	=12	=12	=12
8e-XJ 8c\)	8aaJ 8cc 8a\)	.	4a/	gdy	.
8r	8r	.	.	.	.
!LO:TX:t=P:cross-measure beam:problem	!LO:TX:t=P:cross-measure beam:problem	!	!	!	!
(>[>8C\L	(>8gL 8e- 8B-/	.	8g/	w we-	.
=13	=13	=13	=13	=13	=13
8CJ] 8FF\)	8fJ 8e- 8A/)	.	4f/	-so-	.
8r	8r	.	.	.	.
(>8B- 8G\	(>8b- 8g/	.	(>16g/LL	-łej	.
.	.	.	16b-/JJ)	.	.
!!LO:LB:g=original
=14	=14	=14	=14	=14	=14
8e-\)	8ee-\)	.	[>4.ee-\	chwi-	.
8r	8r	.	.	.	.
!LO:TX:t=P:cross-measure beam:problem	!LO:TX:t=P:cross-measure beam:problem	!	!	!	!
(<[<8C\L	(>8gL 8e- 8B-/	.	.	.	.
=15	=15	=15	=15	=15	=15
8CJ] 8FF\)	8fJ 8e- 8A/)	.	4.ee-\>]	.	.
8r	8r	.	.	.	.
!LO:TX:t=P:cross-measure beam:problem	!LO:TX:t=P:cross-measure beam:problem	!	!	!	!
(>16G\LL	(>16g/LL	.	.	.	.
16B-\J	16b-/J	.	.	.	.
=16	=16	=16	=16	=16	=16
8e-\J)	8ee-/J)	.	4g/	li	.
8r	8r	.	.	.	.
!LO:TX:t=P:cross-measure beam:problem	!LO:TX:t=P:cross-measure beam:problem	!	!	!	!
(>8F 8E-\	(>8g 8A/	.	8r	.	.
=17	=17	=17	=17	=17	=17
8F 8D\)	8f 8B-/)	.	4.f/	po-	.
8r	8r	.	.	.	.
(>16A\LL	(>16a/LL	.	.	.	.
16B-\J	16b-/J	.	.	.	.
=18	=18	=18	=18	=18	=18
8f\J)	8ff/J)	.	4a/	-cznie	.
8r	8r	.	.	.	.
!LO:TX:t=P:cross-measure beam:problem	!LO:TX:t=P:cross-measure beam:problem	!	!	!	!
(>8DL 8DD\	(>8fL 8B-/	.	8b-/	szcze-	.
=19	=19	=19	=19	=19	=19
8D-XJ 8DD-X\)	8fJ 8B- 8G/)	.	[>4.ff\	-bio-	.
8r	8r	.	.	.	.
!LO:TX:t=P:cross-measure beam:problem	!LO:TX:t=P:cross-measure beam:problem	!	!	!	!
(>16A\LL	(>16a/LL	.	.	.	.
16B-\JJ	16b-/JJ	.	.	.	.
!!LO:LB:g=original
=20	=20	=20	=20	=20	=20
8f\)	8ff\)	.	4ff\]	.	.
8r	8r	.	.	.	.
!LO:TX:t=P:cross-measure beam:problem	!LO:TX:t=P:cross-measure beam:problem	!	!	!	!
(>8D-XL 8DD-X\	(>8fL 8B- 8G/	.	8ff\	-tać	.
=21	=21	=21	=21	=21	=21
*	*ped	*	*	*	*
8CJ 8CC\)	8enJ 8B- 8G/)	.	4.een\	i	.
8r	8r	.	.	.	.
!LO:TX:t=P:cross-measure beam:problem	!LO:TX:t=P:cross-measure beam:problem	!	!	!	!
(>16A\LL	(>16a/LL	.	.	.	.
16B-\J	16b-/J	.	.	.	.
=22	=22	=22	=22	=22	=22
8gJ 8en\)	8ggJ 8een/)	.	4dd\	gru-	.
8r	8r	.	.	.	.
8r	8r	.	8cc\	-chać	.
=23	=23	=23	=23	=23	=23
.	.	.	(>16qqcc/LL	.	.
.	.	.	16qqdd/JJ	.	.
4F 4C 4FF\	4a 4e-X 4A/	.	4.ee-X\)	i	.
!LO:TX:t=P:cross-measure beam:problem	!LO:TX:t=P:cross-measure beam:problem	!	!	!	!
(>16A\LL	(<16a/LL	.	.	.	.
16e-X\J	16ee-X/J	.	.	.	.
=24	=24	=24	=24	=24	=24
8a\J)	8aa/J)	.	4dd\	kwi-	.
8r	8r	.	.	.	.
!LO:TX:t=P:cross-measure beam:problem	!LO:TX:t=P:cross-measure beam:problem	!	!	!	!
(>8F\L	(>8fL 8e- 8A/	.	8cc\	-lić	.
=25	=25	=25	=25	=25	=25
!	!	!	!LO:S:color=grey	!	!
8FJ 8BB-\)	8ddJ 8f 8d/)	.	(>4dd\	Tak	.
8r	8r	.	.	.	.
[8e- [>8A\	(>8ccc 8gg 8cc\	.	8cc\)	.	.
!!LO:PB:g=original
=26	=26	=26	=26	=26	=26
8g 8e-] 8A\]	8eee- 8gg 8ee-\)	.	4ee-\	mi-	.
8r	8r	.	.	.	.
!LO:TX:t=P:cross-measure beam:problem	!LO:TX:t=P:cross-measure beam:problem	!	!	!	!
(>8F\L	(<8ddL 8f 8d/	.	8dd\	-le	.
=27	=27	=27	=27	=27	=27
8FF\J)	8ccJ 8e- 8c/)	.	4cc\	gru-	.
8r	8r	.	.	.	.
!LO:TX:t=P:cross-measure beam:problem	!LO:TX:t=P:cross-measure beam:problem	!	!	!	!
(>8enL 8d-X\	(>8bb-L 8dd-X 8b-\	.	8b-/	-cha	.
=28	=28	=28	=28	=28	=28
8e-XJ 8c\)	8aaJ 8cc 8a\)	.	8a/	szcze-	.
8r	8r	.	8a/	-bio-	.
!LO:TX:t=P:cross-measure beam:problem	!LO:TX:t=P:cross-measure beam:problem	!	!	!	!
(>8C\L	(>8gL 8e- 8B-/	.	8g/	-cze	.
=29	=29	=29	=29	=29	=29
!	!	!	!LO:S:color=grey	!	!
8CJ 8FF\)	8fJ 8e- 8A/)	.	(>4f/	i	.
8r	8r	.	.	.	.
(>8B- 8G\	(>8b- 8g/	.	(>16g/LL	.	.
.	.	.	16b-/JJ))	.	.
=30	=30	=30	=30	=30	=30
4e-\)	4ee-\)	.	[>4.ee-\	Kwi-	.
!LO:TX:t=P:cross-measure beam:problem	!LO:TX:t=P:cross-measure beam:problem	!	!	!	!
(>8C\L	(>8gL 8e- 8B-/	.	.	.	.
=31	=31	=31	=31	=31	=31
8CJ 8FF\)	8fJ 8e- 8A/)	.	4.ee-\]	.	.
8r	8r	.	.	.	.
!LO:TX:t=P:cross-measure beam:problem	!LO:TX:t=P:cross-measure beam:problem	!	!	!	!
(>16G\LL	(>16g/LL	.	.	.	.
16B-\JJ	16b-/JJ	.	.	.	.
!!LO:LB:g=original
=32	=32	=32	=32	=32	=32
8e-\)	8ee-\)	.	4g/	-li	.
8r	8r	.	.	.	.
!LO:TX:t=P:cross-measure beam:problem	!LO:TX:t=P:cross-measure beam:problem	!	!	!	!
(>8CL 8CC\	(>8aL 8e- 8A/	.	8r	.	.
=33	=33	=33	=33	=33	=33
8DJ 8DD\)	8f#XJ 8d 8A/)	.	4r	.	.
8r	8r	.	.	.	.
!LO:TX:t=P:cross-measure beam:problem	!LO:TX:t=P:cross-measure beam:problem	!	!	!	!
(>8AL 8F#X\	(>8aL 8f#X/	.	8dd\	Ze	.
=34	=34	=34	=34	=34	=34
8d\J)	8dd/J)	.	4dd\	nie	.
8r	8r	.	.	.	.
!LO:TX:t=P:cross-measure beam:problem	!LO:TX:t=P:cross-measure beam:problem	!	!	!	!
(<8GG\L	(>8d<L 8Bn< 8G</	.	8dd\	chcąc	.
=35	=35	=35	=35	=35	=35
8CC\J)	8e-<J 8c< 8G</)	.	[>4.ee-\	słów-	.
8r	8r	.	.	.	.
!LO:TX:t=P:cross-measure beam:problem	!LO:TX:t=P:cross-measure beam:problem	!	!	!	!
(>16G\LL	(>16g/LL	.	.	.	.
16c\J	16cc/J	.	.	.	.
=36	=36	=36	=36	=36	=36
8gJ 8e-\)	8ggJ 8ee-/)	.	4ee-\]	.	.
8r	8r	.	.	.	.
!LO:TX:t=P:cross-measure beam:problem	!LO:TX:t=P:cross-measure beam:problem	!	!	!	!
(>8C\L	(>8gL 8e- 8B-/	.	8dd\	-ka	.
=37	=37	=37	=37	=37	=37
8FF\J)	8aJ 8e- 8A/)	.	4cc\	ża-	.
8r	8r	.	.	.	.
!LO:TX:t=P:cross-measure beam:problem	!LO:TX:t=P:cross-measure beam:problem	!	!	!	!
(>8c\	(>8gg 8ee- 8b-\	.	8b-/	-dne-	.
!!LO:LB:g=original
=38	=38	=38	=38	=38	=38
8f\)	8ff 8ee- 8a\)	.	4a/	-go	.
8r	8r	.	.	.	.
!LO:TX:t=P:cross-measure beam:problem	!LO:TX:t=P:cross-measure beam:problem	!	!	!	!
(>8FL 8E-\	[>8fL 8A/	.	8cc/	po-	.
=39	=39	=39	=39	=39	=39
8FJ 8D\)	8fJ] 8B-/	.	[<4.f/	-stra-	.
8r	8r	.	.	.	.
!LO:TX:t=P:cross-measure beam:problem	!LO:TX:t=P:cross-measure beam:problem	!	!	!	!
(>16B-\LL	(>16b-\LL	.	.	.	.
16d\J	16ff\J	.	.	.	.
=40	=40	=40	=40	=40	=40
8b-\J)	8bb-\J)	.	4f/]	.	.
8r	8r	.	.	.	.
!LO:TX:t=P:cross-measure beam:problem	!LO:TX:t=P:cross-measure beam:problem	!	!	!	!
(>8DL 8DD\	(>8b-L 8a 8B-/	.	8f/	-dać	.
=41	=41	=41	=41	=41	=41
8E-J 8EE-\)	8b-J 8g 8B-/)	.	4r	.	.
8r	8r	.	.	.	.
!LO:TX:t=P:cross-measure beam:problem	!LO:TX:t=P:cross-measure beam:problem	!	!	!	!
(>8B-L 8G\	(>8b-L 8g/	.	8b-/	Nie	.
=42	=42	=42	=42	=42	=42
8BnJ 8G\)	8ggJ 8bn 8g/)	.	4bn\	śmiem	.
8r	8r	.	.	.	.
!LO:TX:t=P:cross-measure beam:problem	!LO:TX:t=P:cross-measure beam:problem	!	!	!	!
(>8E-L 8EE-\	(>8bL 8g/	.	8b\	prze-	.
=43	=43	=43	=43	=43	=43
8EnJ 8EEn\)	8ccJ 8g 8c/)	.	[>4.cc\	-ry-	.
8r	8r	.	.	.	.
!LO:TX:t=P:cross-measure beam:problem	!LO:TX:t=P:cross-measure beam:problem	!	!	!	!
(>16C\LL	(>16cc\LL	.	.	.	.
16G\JJ	16gg\JJ	.	.	.	.
!!LO:LB:g=original
=44	=44	=44	=44	=44	=44
8c\)	8ccc\)	.	4cc\]	.	.
8r	8r	.	.	.	.
!LO:TX:t=P:cross-measure beam:problem	!LO:TX:t=P:cross-measure beam:problem	!	!	!	!
(>8EnL 8EEn\	(>8ccL 8b- 8c/	.	8g/	-wać	.
=45	=45	=45	=45	=45	=45
8FJ 8FF\)	8ccJ 8a 8c/)	.	4cc\	nie	.
8r	8r	.	.	.	.
!LO:TX:t=P:cross-measure beam:problem	!LO:TX:t=P:cross-measure beam:problem	!	!	!	!
(>8e-L 8A\	(>8cccL 8gg 8cc\	.	8cc\	śmiem	.
=46	=46	=46	=46	=46	=46
8gJ 8e- 8A\)	8eee-J 8gg 8ee-\)	.	4gg\	od-	.
8r	8r	.	.	.	.
!LO:TX:t=P:cross-measure beam:problem	!LO:TX:t=P:cross-measure beam:problem	!	!	!	!
(>8FL 8FF\	(>8ee-L 8a 8e-/	.	8ee-\	-po-	.
=47	=47	=47	=47	=47	=47
!	!	!	!LO:N:vis=4	!	!
8F#XJ 8FF#X\)	8ddJ 8a 8d/)	.	[>4.dd\	-wia-	.
8r	8r	.	.	.	.
!LO:TX:t=P:cross-measure beam:problem	!LO:TX:t=P:cross-measure beam:problem	!	!	!	!
(>16D\LL	(>16b-\LL	.	.	.	.
16A\J	16aa\J	.	.	.	.
=48	=48	=48	=48	=48	=48
8d\J)	8ddd\J)	.	4dd\]	.	.
8r	8r	.	.	.	.
!LO:TX:t=P:cross-measure beam:problem	!LO:TX:t=P:cross-measure beam:problem	!	!	!	!
(>8F#XL 8FF#X\	(>8ddL 8cc 8d/	.	8dd\	-dać	.
=49	=49	=49	=49	=49	=49
8GJ 8GG\)	8ddJ 8b- 8d/)	.	4r	.	.
8r	8r	.	.	.	.
8b- 8g 8en\	(>8bb- 8gg 8een\	.	8dd\	y	.
!!LO:PB:g=original
=50	=50	=50	=50	=50	=50
!	!LO:TX:t=P:problem:LO:N:vis=4.	!	!	!	!
4b- 4g 4en 4d\	4ddd 4bb- 4gg 4een\)	.	4dd\	tyl-	.
8r	8r	.	8dd\	-ko	.
=51	=51	=51	=51	=51	=51
8AA 8AAA\	8a 8f 8d 8A/	.	[>4.aa\	chciał-	.
8r	8r	.	.	.	.
!LO:TX:t=P:cross-measure beam:problem	!LO:TX:t=P:cross-measure beam:problem	!	!	!	!
(>16A\LL	(>16aa\LL	.	.	.	.
16d\J	16ddd\J	.	.	.	.
=52	=52	=52	=52	=52	=52
8a\J)	8aaa\J)	.	4.aa\_>	.	.
8r	8r	.	.	.	.
8r	8r	.	.	.	.
=53	=53	=53	=53	=53	=53
4r	4r	.	4.aa\_>	.	.
!LO:TX:t=P:cross-measure beam:problem	!LO:TX:t=P:cross-measure beam:problem	!	!	!	!
(>16AA\LL	(>16a/LL	.	.	.	.
16D\J	16dd/J	.	.	.	.
=54	=54	=54	=54	=54	=54
8A\J)	8aa/J)	.	4aa\]	.	.
4r	4r	.	.	.	.
.	.	.	8gg\	-bym	.
=55	=55	=55	=55	=55	=55
4AA\	4r	.	8r	.	.
.	.	.	8r	.	.
[>8A [<8F\	(>8a 8f/	.	[>8ff\	słu-	.
!!LO:LB:g=original
=56	=56	=56	=56	=56	=56
4d 4A] 4F\])	4ff 4a 4f/)	.	4ff\]	.	.
8r	8r	.	8dd\	-chać	.
=57	=57	=57	=57	=57	=57
4AA\	4r	.	4r	.	.
[8G\	8b- 8g [8d/	.	[<8b-/	słu-	.
=58	=58	=58	=58	=58	=58
4B- 4G] 4E-\	4dd 4b- 4g 4d/]	.	4b-/]	.	.
8r	8r	.	8dd\	-chać	.
=59	=59	=59	=59	=59	=59
4AAA/	4r	.	4r	.	.
[>8c#X [<8A\	[>8cc#X [<8a/	.	(<16a/LL	słu-	.
.	.	.	16cc#X/JJ)	.	.
=60	=60	=60	=60	=60	=60
4.e- 4.c#] 4.A\]	4.ee- 4.cc#] 4.a/]	.	[4.ee-;>\	.	.
=61	=61	=61	=61	=61	=61
8AA/	4r	.	4.ee-\_>	.	.
8r	.	.	.	.	.
!LO:TX:t=P:cross-measure beam:problem	!LO:TX:t=P:cross-measure beam:problem	!	!	!	!
(>16A\LL	(>16a/LL	.	.	.	.
16e-\JJ	16ee-/JJ	.	.	.	.
!!LO:LB:g=original
=62	=62	=62	=62	=62	=62
8a\)	8aa\)	.	(>4ee-;>\]	.	.
8r;>	8r;>	.	.	.	.
!LO:TX:t=P:cross-measure beam:problem	!LO:TX:t=P:cross-measure beam:problem	!	!	!	!
[>8AA/L	(<8aL 8g/	.	8dd\)	.	.
=63	=63	=63	=63	=63	=63
8AA]J 8DD/	8ddJ 8f/)	.	4dd\	-chać	.
8r	8r	.	.	.	.
!LO:TX:t=P:cross-measure beam:problem	!LO:TX:t=P:cross-measure beam:problem	!	!	!	!
(>16A\LL	(>16a\LL	.	8ryy	.	.
16d\J	16dd\J	.	.	.	.
=64	=64	=64	=64	=64	=64
8a\J)	8aa\J)	.	4.ryy	.	.
8r	8r	.	.	.	.
!LO:TX:t=P:cross-measure beam:problem	!LO:TX:t=P:cross-measure beam:problem	!	!	!	!
(>[>8AA/L	(<8b-L 8g 8e-/	.	.	.	.
=65	=65	=65	=65	=65	=65
8AA]J) 8DD/	8ddJ 8a 8f/)	.	4.ryy	.	.
8r	8r	.	.	.	.
!LO:TX:t=P:cross-measure beam:problem	!LO:TX:t=P:cross-measure beam:problem	!	!	!	!
(>16A\LL	(>16a\LL	.	.	.	.
16d\J	16dd\J	.	.	.	.
=66	=66	=66	=66	=66	=66
8a\J)	8aa\J)	.	4.ryy	.	.
8r	8r	.	.	.	.
(>[>8AA/L	(<8b-L 8g 8e-/	.	.	.	.
=67	=67	=67	=67	=67	=67
8AA]J) 8DD/	8ddJ 8a 8f/)	.	4.ryy	.	.
8r	8r	.	.	.	.
!LO:TX:t=P:cross-measure beam:problem	!LO:TX:t=P:cross-measure beam:problem	!	!	!	!
(>16A\LL	(>16a\LL	.	.	.	.
16d\JJ	16dd\JJ	.	.	.	.
!!LO:LB:g=original
=68	=68	=68	=68	=68	=68
8a\)	8aa\)	.	4.ryy	.	.
8r	8r	.	.	.	.
!LO:TX:t=P:cross-measure beam:problem	!LO:TX:t=P:cross-measure beam:problem	!	!	!	!
(>16A\LL	(>16a\LL	.	.	.	.
16d\J	16dd\J	.	.	.	.
=69	=69	=69	=69	=69	=69
8a\J)	8aa\J)	.	4.ryy	.	.
8r	8r	.	.	.	.
!LO:TX:t=P:cross-measure beam:problem	!LO:TX:t=P:cross-measure beam:problem	!	!	!	!
(>16A\LL	(>16a\LL	.	.	.	.
16d\J	16dd\J	.	.	.	.
=70	=70	=70	=70	=70	=70
8a\J)	8aa\J)	.	4.ryy	.	.
8r	8r	.	.	.	.
!LO:TX:t=P:cross-measure beam:problem	!LO:TX:t=P:cross-measure beam:problem	!	!	!	!
8D\L	8dL 8A/	.	.	.	.
=71	=71	=71	=71	=71	=71
8FJ 8FF\	8a-XJ 8c 8A-X/	.	4r	.	.
8r	8r	.	.	.	.
([8cL [8A-X\	(>8cc 8a-X/	.	8cc\	Lecz	.
=72	=72	=72	=72	=72	=72
8fJ 8c] 8A-\])	[>4.aa-X [>4.cc [<4.a-X/)	.	4cc\	mo-	.
8r	.	.	.	.	.
!LO:TX:t=P:cross-measure beam:problem	!	!	!	!	!
(>8C\L	.	.	8cc\	-wy	.
=73	=73	=73	=73	=73	=73
8CJ 8FF\)	8aa-] 8cc] 8a-/]	.	[>4.cc\	ży-	.
8r	8r	.	.	.	.
!LO:TX:t=P:cross-measure beam:problem	!	!	!	!	!
[8c [8A-X\	[8cc [>8a-X/	.	.	.	.
!!LO:PB:g=original
=74	=74	=74	=74	=74	=74
8f 8c] 8A-\]	[>4.aa-X 4.cc_> 4.a-/_<	.	4cc\]	.	.
8r	.	.	.	.	.
!LO:TX:t=P:cross-measure beam:problem	!	!	!	!	!
(>8F\L	.	.	8cc\	-wość	.
=75	=75	=75	=75	=75	=75
8FJ 8BB-\)	8aa-] 8cc] 8a-/]	.	4cc\	gdy	.
8r	8r	.	.	.	.
!LO:TX:t=P:cross-measure beam:problem	!LO:TX:t=P:cross-measure beam:problem	!	!	!	!
(>8cL 8A-X 8F\	(>8ccL 8a-X/	.	8ee-\	o-	.
=76	=76	=76	=76	=76	=76
8dJ 8B-\)	8ffJ 8dd 8a-y/)	.	4dd\	-czki	.
8r	8r	.	.	.	.
!LO:TX:t=P:cross-measure beam:problem	!LO:TX:t=P:cross-measure beam:problem	!	!	!	!
(>8BB-\L	(>8cL 8A-X/	.	8cc\	za-	.
=77	=77	=77	=77	=77	=77
8GGJ 8CC\)	8e-J 8G/)	.	[>4.ee-\	-pa-	.
8r	8r	.	.	.	.
!LO:TX:t=P:cross-measure beam:problem	!LO:TX:t=P:cross-measure beam:problem	!	!	!	!
(>16B-\LL	(>16b-\LL	.	.	.	.
16e-\J	16ee-\J	.	.	.	.
=78	=78	=78	=78	=78	=78
8b-\J)	8bb-\J)	.	4ee-\]	.	.
8r	8r	.	.	.	.
!LO:TX:t=P:cross-measure beam:problem	!LO:TX:t=P:cross-measure beam:problem	!	!	!	!
(>8BB-\L	(>8ccL 8a-X 8f/	.	8b-/	-li	.
=79	=79	=79	=79	=79	=79
8BB-J 8EE-\)	8ee-J 8b- 8g/)	.	4r	.	.
8r	8r	.	.	.	.
!LO:TX:t=P:cross-measure beam:problem	!LO:TX:t=P:cross-measure beam:problem	!	!	!	!
(>16B-\LL	(>16b-\LL	.	8b-/	y	.
16e-\JJ	16ee-\JJ	.	.	.	.
!!LO:LB:g=original
=80	=80	=80	=80	=80	=80
8b-\)	8bb-\)	.	4b-/	pocz-	.
8r	8r	.	.	.	.
!LO:TX:t=P:cross-measure beam:problem	!	!	!	!	!
(>8BB-\L	8r	.	8b-/	-nie	.
=81	=81	=81	=81	=81	=81
8BB-J 8EE-\)	4r	.	[<4.b-/	mo-	.
8r	.	.	.	.	.
(>[>8B-L [>8G-X\	(>8b- [<8g-X/	.	.	.	.
=82	=82	=82	=82	=82	=82
8e-J) 8B-] 8G-\]	[4.gg-X [4.b- 4.g-/_)	.	4b-/]	.	.
8r	.	.	.	.	.
!LO:TX:t=P:cross-measure beam:problem	!	!	!	!	!
(>8E-\L	.	.	8b-/	-cniej	.
=83	=83	=83	=83	=83	=83
8E-J 8AA-X\)	8gg-] 8b-] 8g-/]	.	4b-\	ja-	.
8r	8r	.	.	.	.
!LO:TX:t=P:cross-measure beam:problem	!LO:TX:t=P:cross-measure beam:problem	!	!	!	!
(>8B-L 8G-X\	(>8b-L 8g-X/	.	8dd-X\	-go-	.
=84	=84	=84	=84	=84	=84
8cJ 8A-X\)	8ee-J 8cc 8g-X/)	.	4cc\	-dy	.
8r	8r	.	.	.	.
!LO:TX:t=P:cross-measure beam:problem	!LO:TX:t=P:cross-measure beam:problem	!	!	!	!
[>8AA-X\L	8dL 8G-X/	.	8b-\	ró-	.
=85	=85	=85	=85	=85	=85
8AA-]J 8DD-X\	8d-XJ 8F/	.	[>4.a-X/	-żo-	.
8r	8r	.	.	.	.
!LO:TX:t=P:cross-measure beam:problem	!LO:TX:t=P:cross-measure beam:problem	!	!	!	!
(>16A-X\LL	(>16a-X\LL	.	.	.	.
16d-X\JJ	16dd-X\JJ	.	.	.	.
!!LO:LB:g=original
=86	=86	=86	=86	=86	=86
8a-X\)	8aa-X\)	.	4.a-/_>	.	.
8r	8r	.	.	.	.
!LO:TX:t=P:cross-measure beam:problem	!LO:TX:t=P:cross-measure beam:problem	!	!	!	!
[>8AA-X\L	(>8b-L 8g-X 8e-/	.	.	.	.
=87	=87	=87	=87	=87	=87
8AA-]J 8DD-X\	8dd-XJ 8a 8f/)	.	4.a-/_>	.	.
8r	8r	.	.	.	.
!LO:TX:t=P:cross-measure beam:problem	!LO:TX:t=P:cross-measure beam:problem	!	!	!	!
(>16A-X\LL	(>16a-X\LL	.	.	.	.
16d-X\J	16dd-X\J	.	.	.	.
=88	=88	=88	=88	=88	=88
8a-X\J)	8aa-X\J)	.	4a-/]	.	.
8r	8r	.	.	.	.
8E- 8EE-\	8g-X 8d-X 8B-/	.	8g-X/	-wać	.
=89	=89	=89	=89	=89	=89
*	*ped	*	*	*	*
4.F 4.FF\	4f 4c 4A/	.	4r	.	.
!	!LO:TX:t=P:cross-measure beam:problem	!	!	!	!
.	(>8f/L	.	8f/	Per-	.
=90	=90	=90	=90	=90	=90
4F\	8ff/J)	.	4f/	-ło-	.
.	8r	.	.	.	.
*	*Xped	*	*	*	*
!	!LO:TX:t=P:cross-measure beam:problem	!	!	!	!
8r	(>8f/L	.	8f/	-we	.
=91	=91	=91	=91	=91	=91
*	*ped	*	*	*	*
4.E- 4.EE-\	8g-XJ 8f 8G-X^>/)	.	[>4.g-X/	zą-	.
.	8r	.	.	.	.
!	!LO:TX:t=P:cross-measure beam:problem	!	!	!	!
.	(>8g-X/	.	.	.	.
!!LO:LB:g=original
=92	=92	=92	=92	=92	=92
4G-X\	8ff\)	.	4g-X/]	-bki	.
.	8r	.	.	.	.
8r	8g-X/	.	8r	.	.
=93	=93	=93	=93	=93	=93
4.D 4.DD\	4gn 4f 4Gn/	.	4gn/	bły-	.
!	!LO:TX:t=P:cross-measure beam:problem	!	!	!	!
.	(<8g/L	.	8g/	-sną	.
=94	=94	=94	=94	=94	=94
4G\	8ff/J)	.	4g/	wśród	.
.	8r	.	.	.	.
8r	8g/	.	8g/	Ko-	.
=95	=95	=95	=95	=95	=95
4.D-X 4.DD-X\	4g#X 4f 4G#X/	.	4.g#X/	-ra-	.
!	!LO:TX:t=P:cross-measure beam:problem	!	!	!	!
.	8g#/L	.	.	.	.
=96	=96	=96	=96	=96	=96
4G#X\	8ff/J	.	4g#X/	-li	.
.	8r	.	.	.	.
8r	8g#X/	.	8ryy	.	.
=97	=97	=97	=97	=97	=97
4.C 4.CC\	4.a 4.f 4.e- 4.A/	.	4a/	bły-	.
.	.	.	8a/	-sną	.
!!LO:PB:g=original
=98	=98	=98	=98	=98	=98
4BB- 4BBB-\	4b- 4f 4e- 4B-/	.	4b-\	wśród	.
8GG#X 8GGG#X\	8bn 8f 8d 8Bn/	.	8bn\	Ko-	.
=99	=99	=99	=99	=99	=99
4AA 4AAA\	4.cc 4.f 4.e- 4.c/	.	4.cc\	-ra-	.
[8FFF/	.	.	.	.	.
=100	=100	=100	=100	=100	=100
4FF 4FFF\]	4cc#X 4a 4e-X 4c#X/	.	4cc#X\	-li	.
8r	8r	.	8r	.	.
=101	=101	=101	=101	=101	=101
8BB- 8FF 8BBB-\	8dd 8b- 8d'/	sf	4dd\	ach!	.
8r	8r	.	.	.	.
!LO:TX:t=P:cross-measure beam:problem	!LO:TX:t=P:cross-measure beam:problem	!	!	!	!
(>8e-L 8A\	(>8cccL 8gg 8cc\	.	8r	.	.
=102	=102	=102	=102	=102	=102
8gJ 8e- 8A\)	8cccJ 8gg 8ee-\)	.	4ee-\	Wten-	.
8r	8r	.	.	.	.
!LO:TX:t=P:cross-measure beam:problem	!LO:TX:t=P:cross-measure beam:problem	!	!	!	!
(>8F\L	(>8ddL 8f 8d/	.	8dd\	-czas	.
=103	=103	=103	=103	=103	=103
8FF\J)	8ccJ 8e- 8c/)	.	4cc\	śmie-	.
8r	8r	.	.	.	.
!LO:TX:t=P:cross-measure beam:problem	!LO:TX:t=P:cross-measure beam:problem	!	!	!	!
(>8en 8d-X\	(>8bb- 8dd-X 8b-\	.	8b-\	-lej	.
!!LO:LB:g=original
=104	=104	=104	=104	=104	=104
8e-X 8c\)	8aa 8cc 8a\)	.	8a/	W o-	.
8r	8r	.	8a/	-czę-	.
!LO:TX:t=P:cross-measure beam:problem	!LO:TX:t=P:cross-measure beam:problem	!	!	!	!
(>[>8C\L	(<8gL 8e- 8B-/	.	8g/	-ta	.
=105	=105	=105	=105	=105	=105
8C]J 8FF\)	8fJ 8e- 8A/)	.	4f/	spo-	.
8r	8r	.	.	.	.
!LO:TX:t=P:cross-measure beam:problem	!LO:TX:t=P:cross-measure beam:problem	!	!LO:S:color=grey	!	!
(>8B-L 8G\	(>8b- 8g/	.	(>16g/LL	.	.
.	.	.	16b-/JJ)	.	.
=106	=106	=106	=106	=106	=106
8e-\J)	8ee-\)	.	[>4.ee-\	-glą-	.
8r	8r	.	.	.	.
!LO:TX:t=P:cross-measure beam:problem	!LO:TX:t=P:cross-measure beam:problem	!	!	!	!
(>[>8C\L	(<8gL 8e- 8B-/	.	.	.	.
=107	=107	=107	=107	=107	=107
8C]J 8FF\)	8fJ 8e- 8A/)	.	4.ee-\]	.	.
8r	8r	.	.	.	.
!LO:TX:t=P:cross-measure beam:problem	!LO:TX:t=P:cross-measure beam:problem	!	!	!	!
(>16GLL	(>16g\LL	.	.	.	.
16B-J	16b-\J	.	.	.	.
=108	=108	=108	=108	=108	=108
8e-\J)	8ee-\J)	.	4g/	-dam	.
8r	8r	.	.	.	.
!LO:TX:t=P:cross-measure beam:problem	!LO:TX:t=P:cross-measure beam:problem	!	!	!	!
(>8FL 8E-\	(>8gL 8A/	.	8r	.	.
=109	=109	=109	=109	=109	=109
8FJ 8D\)	8fJ 8B-/)	.	4.f/	U-	.
8r	8r	.	.	.	.
!LO:TX:t=P:cross-measure beam:problem	!LO:TX:t=P:cross-measure beam:problem	!	!	!	!
(>16A\LL	(>16a\LL	.	.	.	.
16B-\JJ	16b-\JJ	.	.	.	.
!!LO:LB:g=original
=110	=110	=110	=110	=110	=110
8f\)	8ff\)	.	4a/	-sta	.
8r	8r	.	.	.	.
!LO:TX:t=P:cross-measure beam:problem	!LO:TX:t=P:cross-measure beam:problem	!	!	!	!
(>8DL 8DD\	(<8fL 8B-/	.	8b-/	po-	.
=111	=111	=111	=111	=111	=111
8D-XJ 8DD-X\)	8fJ 8B- 8G/)	.	[>4.ff\	-my-	.
8r	8r	.	.	.	.
!LO:TX:t=P:cross-measure beam:problem	!LO:TX:t=P:cross-measure beam:problem	!	!	!	!
(>16A\LL	(>16a\LL	.	.	.	.
16B-\J	16b-\J	.	.	.	.
=112	=112	=112	=112	=112	=112
8f\J)	8ff\J)	.	4ff\]	.	.
8r	8r	.	.	.	.
!LO:TX:t=P:cross-measure beam:problem	!LO:TX:t=P:cross-measure beam:problem	!	!	!	!
(>8D-XL 8DD-X\	(<8fL 8B- 8G/	.	8ff\	-kam	.
=113	=113	=113	=113	=113	=113
*	*ped	*	*	*	*
8CJ 8CC\)	8enJ 8B- 8G/)	.	4.een\	I	.
8r	8r	.	.	.	.
!LO:TX:t=P:cross-measure beam:problem	!LO:TX:t=P:cross-measure beam:problem	!	!	!	!
16A\LL	(>16a\LL	.	.	.	.
16B-\J	16b-\J	.	.	.	.
=114	=114	=114	=114	=114	=114
8gJ 8en\	8ggJ 8een\)	.	4dd\	słu-	.
8r	8r	.	.	.	.
8r	8r	.	8cc\	-chać	.
=115	=115	=115	=115	=115	=115
.	.	.	(>16qqcc/LL	.	.
*	*ped	*	*	*	*
.	.	.	16qqdd/JJ	.	.
4F 4C 4FF\	4a 4e-X 4A/	.	4.ee-X\)	nie	.
!LO:TX:t=P:cross-measure beam:problem	!LO:TX:t=P:cross-measure beam:problem	!	!	!	!
(>16A\LL	(>16a\LL	.	.	.	.
16e-X\JJ	16ee-X\JJ	.	.	.	.
!!LO:LB:g=original
=116	=116	=116	=116	=116	=116
8a\)	8aa\)	.	4dd\	żą-	.
8r	8r	.	.	.	.
8r	8r	.	8cc\	-dam	.
=117	=117	=117	=117	=117	=117
4BBB-\	4.ryy	.	4r	.	.
[>8B-\	.	.	8b-\	tyl-	.
=118	=118	=118	=118	=118	=118
4B-\]	4.dd 4.f#X 4.d 4.A-X/	.	4b-\	-ko	.
8ryy	.	.	8b-\	ca-	.
=119	=119	=119	=119	=119	=119
8EE- 8EEE-/	8g 8e- 8G/	sf	[4.gg\	-ło-	.
8r	8r	.	.	.	.
!LO:TX:t=P:cross-measure beam:problem	!LO:TX:t=P:cross-measure beam:problem	!	!	!	!
(>16B-\LL	(>16bb-\LL	.	.	.	.
16e-\J	16eee-\J	.	.	.	.
=120	=120	=120	=120	=120	=120
8b-\J)	8bbb-\J)	.	4.gg\_	.	.
8r	8r	.	.	.	.
8r	8r	.	.	.	.
=121	=121	=121	=121	=121	=121
4r	4r	.	4.gg\_	.	.
!LO:TX:t=P:cross-measure beam:problem	!LO:TX:t=P:cross-measure beam:problem	!	!	!	!
(>16BB-\LL	(>16b-\LL	.	.	.	.
16E-\JJ	16dd\JJ	.	.	.	.
!!LO:PB:g=original
=122	=122	=122	=122	=122	=122
8b-\)	8bb-\)	.	4.gg\_	.	.
8r	8r	.	.	.	.
8r	8r	.	.	.	.
=123	=123	=123	=123	=123	=123
4.r	4.r	.	4.gg\]	.	.
=124	=124	=124	=124	=124	=124
4.e- 4.c 4.E-\	4.gg-X 4.a 4.g-X\	.	4gg-X\	-wać	.
.	.	.	8r	.	.
=125	=125	=125	=125	=125	=125
[>4.d [>4.B- [<4.D\	[>4.ff [<4.b- [<4.f/	.	4.ff\	ca-	.
=126	=126	=126	=126	=126	=126
4d] 4B-] 4D\]	4ff] 4b-] 4f/]	.	4dd\	-ło-	.
8r	8r	.	8cc\	-wać	.
=127	=127	=127	=127	=127	=127
[>4.B- [<4.G\	[>4.b- [>4.g [<4.d/	.	4r	.	.
.	.	.	8b-\	ca-	.
!!LO:LB:g=original
=128	=128	=128	=128	=128	=128
4B-] 4G\]	4b-] 4g] 4d/]	.	4cc\	-ło-	.
8r	8r	.	8dd\	-wać	.
=129	=129	=129	=129	=129	=129
[>4.c [<4.G [<4.C\	[>4.ee- [>4.b- [<4.g [<4.e-/	.	4r	.	.
.	.	.	(>16g/LL	ca-	.
.	.	.	16b-/JJ)	.	.
=130	=130	=130	=130	=130	=130
4c] 4G] 4C\]	4ee-] 4b-] 4g] 4e-/]	.	(>[>4.ee-;>\	-ło-	.
8r	8r	.	.	.	.
=131	=131	=131	=131	=131	=131
8F 8FF\	8f 8e- 8A/	.	4.ee-\]	.	.
8r	8r	.	.	.	.
!LO:TX:t=P:cross-measure beam:problem	!LO:TX:t=P:cross-measure beam:problem	!	!	!	!
(>16E-\LL	(<16f/LL	.	.	.	.
16A\J	16a/J	.	.	.	.
=132	=132	=132	=132	=132	=132
8c\J)	8cc/J)	.	4cc\	.	.
8r;>	8r;>	.	.	.	.
8FF/	8f/	.	8b-\)	.	.
=133	=133	=133	=133	=133	=133
8BB- 8BBB-\	8b- 8f 8d 8B-/	.	4b-\	-wać	.
8r	8r	.	.	.	.
!LO:TX:t=P:cross-measure beam:problem	!LO:TX:t=P:cross-measure beam:problem	!	!	!	!
(>16F\LL	(>16ff\LL	.	8r	.	.
16B-\JJ	16bb-\JJ	.	.	.	.
!!LO:LB:g=original
=134	=134	=134	=134	=134	=134
8f\)	8fff\)	.	4.ryy	.	.
8r	8r	.	.	.	.
!LO:TX:t=P:cross-measure beam:problem	!LO:TX:t=P:cross-measure beam:problem	!	!	!	!
(<[>8FF/L	(>8gL 8e- 8c/	.	.	.	.
=135	=135	=135	=135	=135	=135
8FF]J 8BBB-/)	8b-J 8f 8d/)	.	4.ryy	.	.
8r	8r	.	.	.	.
!LO:TX:t=P:cross-measure beam:problem	!LO:TX:t=P:cross-measure beam:problem	!	!	!	!
(>16F\LL	(>16ff\LL	.	.	.	.
16B-\J	16bb-\J	.	.	.	.
=136	=136	=136	=136	=136	=136
8f\J)	8fff\J)	.	4.ryy	.	.
8r	8r	.	.	.	.
!LO:TX:t=P:cross-measure beam:problem	!LO:TX:t=P:cross-measure beam:problem	!	!	!	!
(<[>8FF/L	(>8gL 8e- 8c/	.	.	.	.
=137	=137	=137	=137	=137	=137
*	*ped	*	*	*	*
8FF]J 8BBB-/)	8b-J 8f 8d/)	.	4.ryy	.	.
8r	8r	.	.	.	.
!LO:TX:t=P:cross-measure beam:problem	!LO:TX:t=P:cross-measure beam:problem	!	!	!	!
(>16F\LL	(>16ff\LL	.	.	.	.
16B-\J	16bb-\J	.	.	.	.
=138	=138	=138	=138	=138	=138
8f\J)	8fff\J)	.	4.ryy	.	.
8r	8r	.	.	.	.
!LO:TX:t=P:cross-measure beam:problem	!LO:TX:t=P:cross-measure beam:problem	!	!	!	!
(>16F\LL	(>16ff\LL	.	.	.	.
16B-\J	16bb-\J	.	.	.	.
=139	=139	=139	=139	=139	=139
8f\J)	8fff\J)	.	4.ryy	.	.
8r	8r	.	.	.	.
!LO:TX:t=P:cross-measure beam:problem	!LO:TX:t=P:cross-measure beam:problem	!	!	!	!
(>16F\LL	(>16ff\LL	.	.	.	.
16B-\JJ	16bb-\JJ	.	.	.	.
!!LO:LB:g=original
=140	=140	=140	=140	=140	=140
8f\)	8fff\)	.	4.r	.	.
8r	8r	.	.	.	.
!LO:TX:t=P:cross-measure beam:problem	!LO:TX:t=P:cross-measure beam:problem	!	!	!	!
(>16F\LL	(>16ff\LL	.	.	.	.
16B-\J	16bb-\J	.	.	.	.
=141	=141	=141	=141	=141	=141
8f\J)	8fff\J)	.	4.r	.	.
8r	8r	.	.	.	.
8r	8r	.	.	.	.
=142	=142	=142	=142	=142	=142
4.r	4.r	.	4.r	.	.
=143	=143	=143	=143	=143	=143
4BB- 4BBB-\	4d< 4F</	.	4.r	.	.
8r	8r<	.	.	.	.
=144	=144	=144	=144	=144	=144
4.r	4.r	.	4.r	.	.
*	*Xped	*	*	*	*
==	==	==	==	==	==
*-	*-	*-	*-	*-	*-
!!!system-decoration: s1{(s2,s3)}
!!!RDF**kern: > = above
!!!RDF**kern: < = below
!!!ENC: Filip Voros
!!!END: 2021-11-04
!!!EED: Antoni Szymański
!!!EST: 2021-11-05
